Newaita-dark/mimetypes/24/application-x-clementine.svg

<?xml version="1.0" encoding="UTF-8"?>
<svg xmlns="http://www.w3.org/2000/svg" xmlns:xlink="http://www.w3.org/1999/xlink" width="24px" height="24px" viewBox="0 0 24 24" version="1.1">
<defs>
<radialGradient id="radial0" gradientUnits="userSpaceOnUse" cx="450.908936" cy="189.579361" fx="450.908936" fy="189.579361" r="21.166656" gradientTransform="matrix(0.000000130628,-0.0585994,-0.105479,-0.0000000761539,33.392364,47.696497)">
<stop offset="0" style="stop-color:rgb(0%,0%,0%);stop-opacity:0.313726;"/>
<stop offset="0.222222" style="stop-color:rgb(0%,0%,0%);stop-opacity:0.27451;"/>
<stop offset="1" style="stop-color:rgb(0%,0%,0%);stop-opacity:0;"/>
</radialGradient>
<radialGradient id="radial1" gradientUnits="userSpaceOnUse" cx="450.908936" cy="189.579361" fx="450.908936" fy="189.579361" r="21.166656" gradientTransform="matrix(-0.000000130628,0.0585994,0.105479,0.0000000761539,-9.577589,-5.645612)">
<stop offset="0" style="stop-color:rgb(0%,0%,0%);stop-opacity:0.313726;"/>
<stop offset="0.222222" style="stop-color:rgb(0%,0%,0%);stop-opacity:0.27451;"/>
<stop offset="1" style="stop-color:rgb(0%,0%,0%);stop-opacity:0;"/>
</radialGradient>
<radialGradient id="radial2" gradientUnits="userSpaceOnUse" cx="450.908936" cy="189.579361" fx="450.908936" fy="189.579361" r="21.166656" gradientTransform="matrix(-0.000000130628,-0.0585994,0.105479,-0.0000000761539,-9.577589,47.696497)">
<stop offset="0" style="stop-color:rgb(0%,0%,0%);stop-opacity:0.313726;"/>
<stop offset="0.222222" style="stop-color:rgb(0%,0%,0%);stop-opacity:0.27451;"/>
<stop offset="1" style="stop-color:rgb(0%,0%,0%);stop-opacity:0;"/>
</radialGradient>
<radialGradient id="radial3" gradientUnits="userSpaceOnUse" cx="450.908936" cy="189.579361" fx="450.908936" fy="189.579361" r="21.166656" gradientTransform="matrix(0.000000130628,0.0585994,-0.105479,0.0000000761539,33.392362,-5.645612)">
<stop offset="0" style="stop-color:rgb(0%,0%,0%);stop-opacity:0.313726;"/>
<stop offset="0.222222" style="stop-color:rgb(0%,0%,0%);stop-opacity:0.27451;"/>
<stop offset="1" style="stop-color:rgb(0%,0%,0%);stop-opacity:0;"/>
</radialGradient>
<linearGradient id="linear0" gradientUnits="userSpaceOnUse" x1="255.323059" y1="233.5" x2="255.323044" y2="254.666656" gradientTransform="matrix(0.01002,0,0,0.0468795,9.34904,10.079088)">
<stop offset="0" style="stop-color:rgb(0%,0%,0%);stop-opacity:0.27451;"/>
<stop offset="1" style="stop-color:rgb(0%,0%,0%);stop-opacity:0;"/>
</linearGradient>
<linearGradient id="linear1" gradientUnits="userSpaceOnUse" x1="1040" y1="1695.118164" x2="1040" y2="175.118134" gradientTransform="matrix(0.0124035,0,0,0.0124035,0,0.00000000000000141)">
<stop offset="0" style="stop-color:rgb(100%,65.490198%,14.901961%);stop-opacity:1;"/>
<stop offset="1" style="stop-color:rgb(100%,80.000001%,50.196081%);stop-opacity:1;"/>
</linearGradient>
<linearGradient id="linear2" gradientUnits="userSpaceOnUse" x1="960" y1="1695.118164" x2="960" y2="175.118118" gradientTransform="matrix(0.0124035,0,0,0.0124035,0,0.00000000000000141)">
<stop offset="0" style="stop-color:rgb(100%,80.000001%,50.196081%);stop-opacity:1;"/>
<stop offset="1" style="stop-color:rgb(100%,87.843138%,69.803923%);stop-opacity:1;"/>
</linearGradient>
<linearGradient id="linear3" gradientUnits="userSpaceOnUse" x1="680" y1="255.118118" x2="640" y2="1695.118164" gradientTransform="matrix(0.0124035,0,0,0.0124035,0,0.00000000000000141)">
<stop offset="0" style="stop-color:rgb(100%,43.921569%,26.274511%);stop-opacity:1;"/>
<stop offset="1" style="stop-color:rgb(100%,34.117648%,13.333334%);stop-opacity:1;"/>
</linearGradient>
</defs>
<g id="surface1">
<path style=" stroke:none;fill-rule:nonzero;fill:url(#radial0);" d="M 13.644531 21.027344 L 15.628906 21.027344 L 15.628906 20.03125 L 13.644531 20.03125 Z M 13.644531 21.027344 "/>
<path style=" stroke:none;fill-rule:nonzero;fill:url(#radial1);" d="M 10.171875 21.027344 L 8.1875 21.027344 L 8.1875 22.019531 L 10.171875 22.019531 Z M 10.171875 21.027344 "/>
<path style=" stroke:none;fill-rule:nonzero;fill:url(#radial2);" d="M 10.171875 21.027344 L 8.1875 21.027344 L 8.1875 20.03125 L 10.171875 20.03125 Z M 10.171875 21.027344 "/>
<path style=" stroke:none;fill-rule:nonzero;fill:url(#radial3);" d="M 13.644531 21.027344 L 15.628906 21.027344 L 15.628906 22.019531 L 13.644531 22.019531 Z M 13.644531 21.027344 "/>
<path style=" stroke:none;fill-rule:nonzero;fill:url(#linear0);" d="M 10.171875 20.777344 L 13.644531 20.777344 L 13.644531 22.019531 L 10.171875 22.019531 Z M 10.171875 20.777344 "/>
<path style=" stroke:none;fill-rule:nonzero;fill:url(#linear1);" d="M 10.28125 2.367188 C 7.441406 2.667969 3.96875 7.039062 3.96875 11.597656 C 3.96875 16.820312 7.507812 21.027344 11.90625 21.027344 C 13.84375 21.027344 20.839844 19.039062 19.84375 17.304688 C 18.851562 15.566406 14.386719 15.320312 12.402344 10.109375 C 11.660156 8.125 11.90625 2.171875 10.28125 2.367188 Z M 10.28125 2.367188 "/>
<path style=" stroke:none;fill-rule:nonzero;fill:url(#linear2);" d="M 8.695312 2.910156 C 6.296875 4.261719 3.96875 7.867188 3.96875 11.597656 C 3.96875 16.820312 7.507812 21.027344 11.90625 21.027344 C 13.199219 21.027344 16.730469 20.144531 18.652344 19.046875 C 17.507812 18.984375 16.46875 18.773438 15.902344 18.519531 C 13.148438 17.304688 8.089844 14.109375 8.148438 8.886719 C 8.171875 6.789062 8.203125 4.636719 8.695312 2.910156 Z M 8.695312 2.910156 "/>
<path style=" stroke:none;fill-rule:nonzero;fill:url(#linear3);" d="M 8.085938 3.304688 C 5.917969 4.875 3.96875 8.183594 3.96875 11.597656 C 3.96875 16.820312 7.507812 21.027344 11.90625 21.027344 C 13 21.027344 15.691406 20.394531 17.660156 19.535156 C 17.644531 19.535156 17.628906 19.535156 17.613281 19.535156 C 11.703125 19.535156 6.945312 14.582031 6.945312 8.421875 L 6.945312 8.324219 C 6.945312 6.515625 7.355469 4.808594 8.085938 3.304688 Z M 8.085938 3.304688 "/>
<path style=" stroke:none;fill-rule:nonzero;fill:rgb(100%,100%,100%);fill-opacity:0.392157;" d="M 10.355469 2.363281 C 10.332031 2.363281 10.308594 2.367188 10.28125 2.367188 C 7.441406 2.667969 3.96875 7.039062 3.96875 11.597656 C 3.96875 11.921875 3.984375 12.242188 4.007812 12.554688 C 3.992188 12.296875 3.984375 12.039062 3.984375 11.773438 C 3.984375 7.214844 7.457031 2.84375 10.296875 2.542969 C 11.921875 2.347656 11.671875 8.300781 12.417969 10.285156 C 14.402344 15.496094 18.867188 15.742188 19.859375 17.480469 C 19.898438 17.550781 19.925781 17.617188 19.941406 17.6875 C 19.949219 17.558594 19.917969 17.429688 19.84375 17.304688 C 18.851562 15.566406 14.386719 15.320312 12.402344 10.109375 C 11.671875 8.15625 11.898438 2.355469 10.355469 2.363281 Z M 10.355469 2.363281 "/>
<path style=" stroke:none;fill-rule:nonzero;fill:rgb(0%,0%,0%);fill-opacity:0.27451;" d="M 3.96875 11.503906 C 3.96875 11.535156 3.96875 11.566406 3.96875 11.597656 C 3.96875 16.820312 7.507812 21.027344 11.90625 21.027344 C 13.753906 21.027344 20.191406 19.222656 19.933594 17.550781 C 19.695312 19.164062 13.683594 20.828125 11.90625 20.828125 C 7.539062 20.828125 4.015625 16.679688 3.96875 11.503906 Z M 3.96875 11.503906 "/>
<path style=" stroke:none;fill-rule:nonzero;fill:rgb(12.941177%,12.941177%,12.941177%);fill-opacity:1;" d="M 10.355469 2.292969 C 10.328125 2.292969 10.300781 2.296875 10.273438 2.296875 C 8.820312 2.453125 7.234375 3.632812 6.003906 5.34375 C 4.773438 7.054688 3.898438 9.300781 3.898438 11.597656 C 3.898438 16.851562 7.464844 21.097656 11.90625 21.097656 C 12.898438 21.097656 15.125 20.597656 17 19.882812 C 17.9375 19.523438 18.78125 19.113281 19.339844 18.671875 C 19.617188 18.453125 19.824219 18.226562 19.933594 17.992188 C 20.039062 17.753906 20.039062 17.503906 19.90625 17.269531 C 19.648438 16.816406 19.171875 16.46875 18.578125 16.121094 C 17.988281 15.769531 17.273438 15.414062 16.535156 14.949219 C 15.050781 14.023438 13.457031 12.675781 12.46875 10.085938 C 12.105469 9.117188 11.976562 7.128906 11.742188 5.410156 C 11.625 4.554688 11.480469 3.761719 11.261719 3.191406 C 11.148438 2.90625 11.019531 2.671875 10.859375 2.511719 C 10.71875 2.375 10.546875 2.292969 10.355469 2.292969 Z M 10.355469 2.433594 C 10.507812 2.433594 10.636719 2.492188 10.757812 2.613281 C 10.898438 2.75 11.023438 2.964844 11.128906 3.242188 C 11.339844 3.792969 11.488281 4.578125 11.601562 5.429688 C 11.835938 7.140625 11.957031 9.117188 12.335938 10.136719 C 13.335938 12.757812 14.964844 14.136719 16.460938 15.070312 C 17.207031 15.535156 17.921875 15.894531 18.507812 16.242188 C 19.09375 16.585938 19.546875 16.925781 19.785156 17.339844 C 19.898438 17.539062 19.898438 17.730469 19.804688 17.933594 C 19.710938 18.136719 19.519531 18.351562 19.253906 18.5625 C 18.71875 18.984375 17.878906 19.394531 16.949219 19.75 C 15.089844 20.460938 12.851562 20.957031 11.90625 20.957031 C 7.554688 20.957031 4.039062 16.789062 4.039062 11.597656 C 4.039062 9.335938 4.902344 7.117188 6.117188 5.425781 C 7.332031 3.738281 8.902344 2.585938 10.289062 2.4375 C 10.3125 2.433594 10.335938 2.433594 10.355469 2.433594 Z M 10.355469 2.433594 "/>
</g>
</svg>

<svg height="32" viewBox="0 0 24 24" width="32" xmlns="http://www.w3.org/2000/svg" xmlns:xlink="http://www.w3.org/1999/xlink"><linearGradient id="a"><stop offset="0" stop-opacity=".314"/><stop offset=".222" stop-opacity=".275"/><stop offset="1" stop-opacity="0"/></linearGradient><radialGradient id="b" cx="450.909" cy="189.579" gradientTransform="matrix(0 -.0586 -.10548 0 33.392 47.696)" gradientUnits="userSpaceOnUse" r="21.167" xlink:href="#a"/><radialGradient id="c" cx="450.909" cy="189.579" gradientTransform="matrix(0 .0586 .10548 0 -9.578 -5.646)" gradientUnits="userSpaceOnUse" r="21.167" xlink:href="#a"/><radialGradient id="d" cx="450.909" cy="189.579" gradientTransform="matrix(0 -.0586 .10548 0 -9.578 47.696)" gradientUnits="userSpaceOnUse" r="21.167" xlink:href="#a"/><radialGradient id="e" cx="450.909" cy="189.579" gradientTransform="matrix(0 .0586 -.10548 0 33.392 -5.646)" gradientUnits="userSpaceOnUse" r="21.167" xlink:href="#a"/><linearGradient id="f" gradientTransform="matrix(.01002 0 0 .04688 9.349 10.08)" gradientUnits="userSpaceOnUse" x1="255.323" x2="255.323" y1="233.5" y2="254.667"><stop offset="0" stop-opacity=".275"/><stop offset="1" stop-opacity="0"/></linearGradient><linearGradient id="g" gradientUnits="userSpaceOnUse" x1="12.896" x2="12.896" y1="21.0194632" y2="2.1714632"><stop offset="0" stop-color="#ffa726"/><stop offset="1" stop-color="#ffcc80"/></linearGradient><linearGradient id="h" gradientUnits="userSpaceOnUse" x1="11.904" x2="11.904" y1="21.0194632" y2="2.1714632"><stop offset="0" stop-color="#ffcc80"/><stop offset="1" stop-color="#ffe0b2"/></linearGradient><linearGradient id="i" gradientUnits="userSpaceOnUse" x1="8.432" x2="7.936" y1="3.1634632" y2="21.0194632"><stop offset="0" stop-color="#ff7043"/><stop offset="1" stop-color="#ff5722"/></linearGradient><path d="m13.645 21.027h1.984v-.996h-1.984zm0 0" fill="url(#b)"/><path d="m10.172 21.027h-1.985v.993h1.985zm0 0" fill="url(#c)"/><path d="m10.172 21.027h-1.985v-.996h1.985zm0 0" fill="url(#d)"/><path d="m13.645 21.027h1.984v.993h-1.984zm0 0" fill="url(#e)"/><path d="m10.172 20.777h3.473v1.243h-3.473zm0 0" fill="url(#f)"/><path d="m10.281 2.367c-2.84.301-6.312 4.672-6.312 9.23 0 5.223 3.539 9.43 7.937 9.43 1.938 0 8.934-1.988 7.938-3.722-.992-1.739-5.457-1.985-7.442-7.196-.742-1.984-.496-7.937-2.12-7.742zm0 0" fill="url(#g)"/><path d="m8.695 2.91c-2.398 1.352-4.725 4.957-4.725 8.688 0 5.222 3.539 9.43 7.937 9.43 1.293 0 4.824-.883 6.746-1.981-1.144-.063-2.183-.274-2.75-.527-2.754-1.215-7.812-4.41-7.754-9.633.024-2.098.055-4.25.547-5.977zm0 0" fill="url(#h)"/><path d="m8.086 3.305c-2.168 1.57-4.117 4.879-4.117 8.293 0 5.222 3.539 9.43 7.937 9.43 1.094 0 3.785-.633 5.754-1.493h-.047c-5.91 0-10.668-4.953-10.668-11.113v-.098c0-1.808.41-3.515 1.14-5.02zm0 0" fill="url(#i)"/><path d="m10.355 2.363c-.023 0-.046.004-.074.004-2.84.301-6.312 4.672-6.312 9.23 0 .325.015.645.039.958a12.849 12.849 0 0 1 -.024-.782c0-4.558 3.473-8.93 6.313-9.23 1.625-.195 1.375 5.758 2.121 7.742 1.984 5.211 6.45 5.457 7.441 7.195.04.07.067.137.082.207a.661.661 0 0 0 -.097-.382c-.992-1.739-5.457-1.985-7.442-7.196-.73-1.953-.504-7.754-2.047-7.746zm0 0" fill="#fff" fill-opacity=".392"/><path d="m3.969 11.504v.094c0 5.222 3.539 9.43 7.937 9.43 1.848 0 8.285-1.805 8.028-3.477-.239 1.613-6.25 3.277-8.028 3.277-4.367 0-7.89-4.148-7.937-9.324zm0 0" fill-opacity=".275"/><path d="m10.355 2.293c-.027 0-.054.004-.082.004-1.453.156-3.039 1.336-4.27 3.047-1.23 1.71-2.105 3.957-2.105 6.254 0 5.254 3.567 9.5 8.008 9.5.992 0 3.219-.5 5.094-1.215.938-.36 1.781-.77 2.34-1.211.277-.219.484-.445.594-.68a.776.776 0 0 0 -.028-.722c-.258-.454-.734-.801-1.328-1.149-.59-.351-1.305-.707-2.043-1.172-1.484-.926-3.078-2.273-4.066-4.863-.364-.969-.492-2.957-.727-4.676-.117-.855-.262-1.648-.48-2.219-.114-.285-.242-.52-.403-.68a.718.718 0 0 0 -.504-.218zm0 .14c.153 0 .282.06.403.18.14.137.265.352.37.63.212.55.36 1.335.474 2.187.234 1.71.355 3.687.734 4.707 1 2.62 2.629 4 4.125 4.933.746.465 1.46.825 2.047 1.172.586.344 1.039.684 1.277 1.098.113.2.113.39.02.594-.094.203-.285.418-.551.628-.535.422-1.375.833-2.305 1.188-1.86.71-4.097 1.207-5.043 1.207-4.351 0-7.867-4.168-7.867-9.36 0-2.261.863-4.48 2.078-6.171 1.215-1.688 2.785-2.84 4.172-2.989.024-.003.047-.003.066-.003zm0 0" fill="#212121"/></svg>
